src/assets/Setting.svg

<svg width="26" height="26" viewBox="0 0 26 26" fill="none" xmlns="http://www.w3.org/2000/svg">
<path d="M0.456615 19.0911L0.970844 19.9036C1.78947 21.2171 3.53608 21.7832 5.07286 21.2279L6.51211 20.7134C7.25686 21.2442 8.07844 21.6802 8.95027 22.0107L9.18669 23.4027C9.42903 24.9004 10.8328 26.0081 12.4849 26H13.5133C15.1653 26.0054 16.5691 24.9004 16.8144 23.4054L17.0479 22.0134C17.9256 21.6829 18.7502 21.2469 19.5008 20.7161L20.9401 21.2307C22.471 21.7777 24.2117 21.2144 25.0273 19.9063L25.5416 19.0938C26.3809 17.7857 26.0381 16.1092 24.7377 15.1667L23.5556 14.2892C23.6826 13.428 23.6826 12.5559 23.5556 11.6947L24.7377 10.8172C26.0262 9.8774 26.3691 8.21178 25.5416 6.90637L25.0273 6.09388C24.2057 4.78305 22.4621 4.21973 20.9253 4.77222L19.5008 5.28409C18.7561 4.75326 17.9345 4.31722 17.0627 3.98681L16.8292 2.59474C16.581 1.09433 15.1683 -0.013373 13.5133 0.000168596H12.4849C10.8328 -0.00524804 9.42903 1.09975 9.18374 2.59474L8.95027 3.98681C8.07844 4.31722 7.25686 4.75326 6.51211 5.28409L5.07286 4.76951C3.53608 4.21702 1.78947 4.77764 0.970844 6.09117L0.456615 6.90367C-0.382702 8.21449 -0.0398825 9.89094 1.26047 10.8334L2.4426 11.7109C2.31553 12.5722 2.31553 13.4443 2.4426 14.3055L1.26047 15.183C-0.0280611 16.1228 -0.370881 17.7857 0.456615 19.0911ZM2.73814 16.8649L4.47292 15.5892C4.8187 15.3347 4.98124 14.9257 4.89258 14.5276C4.66798 13.5201 4.66798 12.4801 4.89258 11.4726C4.98124 11.0745 4.8187 10.6655 4.47292 10.4109L2.73814 9.13532C2.35986 8.85907 2.26233 8.37157 2.50467 7.9897L3.0189 7.17721C3.25828 6.79263 3.7666 6.63013 4.21581 6.79263L6.30228 7.5347C6.71603 7.68095 7.18297 7.60512 7.51397 7.337C8.34738 6.6545 9.32559 6.1345 10.3866 5.81221C10.8062 5.68492 11.1136 5.34909 11.1815 4.94826L11.5214 2.92515C11.5923 2.48911 12.0031 2.16411 12.4849 2.16682H13.5133C13.995 2.16682 14.4058 2.48911 14.4768 2.92515L14.8166 4.94555C14.8846 5.34639 15.1919 5.68222 15.6116 5.80951C16.6726 6.1318 17.6508 6.65179 18.4842 7.33429C18.8152 7.60241 19.2821 7.67825 19.6959 7.532L21.7824 6.78992C22.2257 6.63554 22.7281 6.79804 22.9645 7.1745L23.4787 7.98699C23.7211 8.36887 23.6235 8.85636 23.2453 9.13261L21.5105 10.4082C21.1647 10.6628 21.0021 11.0718 21.0908 11.4699C21.3154 12.4774 21.3154 13.5174 21.0908 14.5249C21.0021 14.923 21.1647 15.3319 21.5105 15.5865L23.2453 16.8621C23.6235 17.1384 23.7211 17.6232 23.4787 18.0051L22.9645 18.8175C22.7281 19.1967 22.2257 19.3592 21.7824 19.2048L19.6959 18.4628C19.2821 18.3165 18.8152 18.3923 18.4842 18.6605C17.6508 19.343 16.6726 19.8603 15.6116 20.1852C15.1919 20.3125 14.8846 20.6484 14.8166 21.0492L14.4768 23.075C14.4058 23.5111 13.995 23.8361 13.5133 23.8333H12.4849C12.0031 23.8333 11.5923 23.5111 11.5214 23.075L11.1815 21.0546C11.1136 20.6538 10.8062 20.318 10.3866 20.1907C9.32559 19.8684 8.34738 19.3484 7.51397 18.6659C7.29823 18.4898 7.02043 18.3951 6.73081 18.3951C6.58304 18.3951 6.43823 18.4194 6.30228 18.4709L4.21581 19.213C3.7666 19.3755 3.25532 19.213 3.0189 18.8257L2.50467 18.0132C2.25937 17.6313 2.3569 17.1411 2.73814 16.8649Z" fill="#999999"/>
<path d="M12.9991 17.3334C15.6116 17.3334 17.7276 15.3942 17.7276 13.0001C17.7276 10.6059 15.6116 8.66678 12.9991 8.66678C10.3866 8.66678 8.27054 10.6059 8.27054 13.0001C8.27054 15.3942 10.3866 17.3334 12.9991 17.3334ZM12.9991 10.8334C14.3053 10.8334 15.3634 11.803 15.3634 13.0001C15.3634 14.1972 14.3053 15.1667 12.9991 15.1667C11.6928 15.1667 10.6348 14.1972 10.6348 13.0001C10.6348 11.803 11.6928 10.8334 12.9991 10.8334Z" fill="#999999"/>
</svg>

<svg xmlns="http://www.w3.org/2000/svg" width="26" height="26" fill="none"><path fill="#999" d="m.457 19.091.514.813c.818 1.313 2.565 1.88 4.102 1.324l1.44-.515c.744.531 1.565.967 2.437 1.298l.237 1.392c.242 1.497 1.646 2.605 3.298 2.597h1.028c1.652.005 3.056-1.1 3.301-2.595l.234-1.392c.878-.33 1.702-.766 2.453-1.297l1.44.515c1.53.547 3.27-.017 4.086-1.325l.515-.812c.839-1.308.496-2.985-.804-3.927l-1.182-.878a8.9 8.9 0 0 0 0-2.594l1.182-.878c1.288-.94 1.631-2.605.804-3.91l-.515-.813c-.821-1.311-2.565-1.874-4.102-1.322l-1.424.512a10.8 10.8 0 0 0-2.438-1.297l-.234-1.392c-.248-1.5-1.66-2.608-3.316-2.595h-1.028c-1.652-.005-3.056 1.1-3.301 2.595L8.95 3.987c-.872.33-1.693.766-2.438 1.297l-1.44-.514C3.537 4.217 1.79 4.778.972 6.09l-.514.813c-.84 1.31-.497 2.987.803 3.93l1.183.877a8.9 8.9 0 0 0 0 2.595l-1.183.877c-1.288.94-1.63 2.603-.803 3.908m2.281-2.226 1.735-1.276c.346-.254.508-.663.42-1.061a7 7 0 0 1 0-3.055c.088-.399-.074-.808-.42-1.062L2.738 9.135c-.378-.276-.476-.763-.233-1.145l.514-.813c.24-.384.748-.547 1.197-.384l2.086.742c.414.146.881.07 1.212-.198a8.4 8.4 0 0 1 2.873-1.525c.42-.127.727-.463.794-.864l.34-2.023c.071-.436.482-.76.964-.758h1.028c.482 0 .893.322.964.758l.34 2.02c.068.401.375.737.795.865a8.4 8.4 0 0 1 2.872 1.524c.331.268.798.344 1.212.198l2.086-.742c.444-.154.946.008 1.183.385l.514.812c.242.382.145.87-.234 1.146l-1.735 1.275c-.345.255-.508.664-.42 1.062a7 7 0 0 1 0 3.055c-.088.398.075.807.42 1.061l1.735 1.276c.378.276.476.761.234 1.143l-.514.813c-.237.379-.74.541-1.183.387l-2.086-.742a1.27 1.27 0 0 0-1.212.197 8.4 8.4 0 0 1-2.872 1.525c-.42.128-.727.463-.795.864l-.34 2.026c-.071.436-.482.761-.964.758h-1.028c-.482 0-.893-.322-.964-.758l-.34-2.02c-.067-.401-.375-.737-.794-.864a8.4 8.4 0 0 1-2.873-1.525 1.24 1.24 0 0 0-.783-.27q-.223-.002-.429.075l-2.086.742c-.45.162-.96 0-1.197-.387l-.514-.813c-.246-.382-.148-.872.233-1.148"/><path fill="#999" d="M13 17.333c2.612 0 4.728-1.939 4.728-4.333s-2.116-4.333-4.729-4.333S8.271 10.606 8.271 13s2.116 4.333 4.728 4.333m0-6.5c1.305 0 2.363.97 2.363 2.167S14.305 15.167 13 15.167s-2.364-.97-2.364-2.167 1.058-2.167 2.364-2.167"/></svg>
